X: 6
T: Boys Of The Lough, The
Z: Lucy Rietmann
S: https://thesession.org/tunes/343#setting23073
R: reel
M: 4/4
L: 1/8
K: Dmaj
|:A~D3 F~A2B|defd ecdB|(3.A.c.A FA dBAF|(3GFE FD E2 FG|
A~D3 F~A2B|defd ecdB|(3.A.c.A FA dBAF|1 GFEG FDD2:|2 GFEG FDD||
f|:af (3.g.f.e fdec|dcBA BcdB|(3.A.c.A FA dAFA|"B" EGFD E2fg|
af (3.g.f.e fdec|dcBA BcdB|(3.A.c.A FA dAFA|GFEG FDD2:|

